svgs/sharp-solid/camera-movie.svg

<svg xmlns="http://www.w3.org/2000/svg" viewBox="0 0 576 512"><!--! Font Awesome Pro 6.6.0 by @fontawesome - https://fontawesome.com License - https://fontawesome.com/license (Commercial License) Copyright 2024 Fonticons, Inc. --><path d="M128 64a64 64 0 1 0 0 128 64 64 0 1 0 0-128zM352 256l-224 0C57.3 256 0 198.7 0 128S57.3 0 128 0c48.2 0 90.2 26.6 112 66C261.8 26.6 303.8 0 352 0c70.7 0 128 57.3 128 128s-57.3 128-128 128zm0-192a64 64 0 1 0 0 128 64 64 0 1 0 0-128zM576 256l0 256L448 448l0-128 128-64zM416 288l0 224L64 512l0-160-32 0L0 352l0-64 32 0 32 0 64 0 32 0 256 0z"/></svg>

<svg xmlns="http://www.w3.org/2000/svg" viewBox="0 0 576 512"><!--! Font Awesome Pro 6.4.0 by @fontawesome - https://fontawesome.com License - https://fontawesome.com/license (Commercial License) Copyright 2023 Fonticons, Inc. --><path d="M128 64a64 64 0 1 0 0 128 64 64 0 1 0 0-128zM352 256H128C57.3 256 0 198.7 0 128S57.3 0 128 0c48.2 0 90.2 26.6 112 66C261.8 26.6 303.8 0 352 0c70.7 0 128 57.3 128 128s-57.3 128-128 128zm0-192a64 64 0 1 0 0 128 64 64 0 1 0 0-128zM576 256V512L448 448V320l128-64zM416 288V512H64V352H32 0V288H32 64h64 32H416z"/></svg>
